img/logo-white.svg

<svg width="223" height="48" viewBox="0 0 223 48" fill="none" xmlns="http://www.w3.org/2000/svg">
<path fill-rule="evenodd" clip-rule="evenodd" d="M21.1204 11.6246C22.8339 10.3647 25.1674 10.3647 26.8809 11.6246L37.2127 19.2216C38.4588 20.1378 39.1946 21.5921 39.1946 23.1387V38.6366H29.4704V25.5986L24.0006 21.5767L18.5308 25.5986V38.6366H8.80664V23.1387C8.80664 21.5921 9.54245 20.1378 10.7885 19.2216L21.1204 11.6246Z" fill="white"/>
<rect x="18.5933" y="38.6367" width="10.8649" height="7.86328" fill="white"/>
<path d="M60 37.194V10.374H65.58V21.966H76.02V10.374H81.6V37.194H76.02V26.826H65.58V37.194H60Z" fill="white"/>
<path d="M95.7272 37.626C93.7832 37.626 92.0072 37.182 90.3992 36.294C88.8152 35.406 87.5432 34.194 86.5832 32.658C85.6472 31.098 85.1792 29.334 85.1792 27.366C85.1792 25.374 85.6472 23.61 86.5832 22.074C87.5432 20.538 88.8152 19.326 90.3992 18.438C92.0072 17.55 93.7832 17.106 95.7272 17.106C97.6712 17.106 99.4352 17.55 101.019 18.438C102.603 19.326 103.863 20.538 104.799 22.074C105.759 23.61 106.239 25.374 106.239 27.366C106.239 29.334 105.759 31.098 104.799 32.658C103.863 34.194 102.603 35.406 101.019 36.294C99.4352 37.182 97.6712 37.626 95.7272 37.626ZM95.7272 32.766C96.7112 32.766 97.5632 32.538 98.2832 32.082C99.0272 31.626 99.6032 30.99 100.011 30.174C100.443 29.358 100.659 28.422 100.659 27.366C100.659 26.31 100.443 25.386 100.011 24.594C99.6032 23.778 99.0272 23.142 98.2832 22.686C97.5632 22.206 96.7112 21.966 95.7272 21.966C94.7432 21.966 93.8792 22.206 93.1352 22.686C92.3912 23.142 91.8032 23.778 91.3712 24.594C90.9632 25.386 90.7592 26.31 90.7592 27.366C90.7592 28.422 90.9632 29.358 91.3712 30.174C91.8032 30.99 92.3912 31.626 93.1352 32.082C93.8792 32.538 94.7432 32.766 95.7272 32.766Z" fill="white"/>
<path d="M109.42 37.194V17.538H114.46V22.326L113.92 21.534C114.208 20.022 114.904 18.906 116.008 18.186C117.112 17.466 118.432 17.106 119.968 17.106C121.6 17.106 123.028 17.526 124.252 18.366C125.5 19.182 126.28 20.286 126.592 21.678L125.044 21.822C125.692 20.214 126.616 19.026 127.816 18.258C129.016 17.49 130.42 17.106 132.028 17.106C133.444 17.106 134.692 17.418 135.772 18.042C136.876 18.666 137.74 19.542 138.364 20.67C138.988 21.774 139.3 23.07 139.3 24.558V37.194H133.9V25.71C133.9 24.942 133.756 24.282 133.468 23.73C133.204 23.178 132.82 22.746 132.316 22.434C131.812 22.122 131.2 21.966 130.48 21.966C129.784 21.966 129.172 22.122 128.644 22.434C128.14 22.746 127.744 23.178 127.456 23.73C127.192 24.282 127.06 24.942 127.06 25.71V37.194H121.66V25.71C121.66 24.942 121.516 24.282 121.228 23.73C120.964 23.178 120.58 22.746 120.076 22.434C119.572 22.122 118.96 21.966 118.24 21.966C117.544 21.966 116.932 22.122 116.404 22.434C115.9 22.746 115.504 23.178 115.216 23.73C114.952 24.282 114.82 24.942 114.82 25.71V37.194H109.42Z" fill="white"/>
<path d="M152.322 37.626C150.234 37.626 148.422 37.17 146.886 36.258C145.35 35.322 144.162 34.074 143.322 32.514C142.482 30.954 142.062 29.226 142.062 27.33C142.062 25.362 142.494 23.61 143.358 22.074C144.246 20.538 145.434 19.326 146.922 18.438C148.41 17.55 150.09 17.106 151.962 17.106C153.522 17.106 154.902 17.358 156.102 17.862C157.302 18.342 158.31 19.026 159.126 19.914C159.966 20.802 160.602 21.834 161.034 23.01C161.466 24.162 161.682 25.422 161.682 26.79C161.682 27.174 161.658 27.558 161.61 27.942C161.586 28.302 161.526 28.614 161.43 28.878H146.706V24.918H158.37L155.814 26.79C156.054 25.758 156.042 24.846 155.778 24.054C155.514 23.238 155.046 22.602 154.374 22.146C153.726 21.666 152.922 21.426 151.962 21.426C151.026 21.426 150.222 21.654 149.55 22.11C148.878 22.566 148.374 23.238 148.038 24.126C147.702 25.014 147.57 26.094 147.642 27.366C147.546 28.47 147.678 29.442 148.038 30.282C148.398 31.122 148.95 31.782 149.694 32.262C150.438 32.718 151.338 32.946 152.394 32.946C153.354 32.946 154.17 32.754 154.842 32.37C155.538 31.986 156.078 31.458 156.462 30.786L160.782 32.838C160.398 33.798 159.786 34.638 158.946 35.358C158.13 36.078 157.158 36.642 156.03 37.05C154.902 37.434 153.666 37.626 152.322 37.626Z" fill="white"/>
<path d="M165.258 37.194V10.374H175.554C177.402 10.374 179.034 10.698 180.45 11.346C181.89 11.994 183.018 12.954 183.834 14.226C184.65 15.498 185.058 17.07 185.058 18.942C185.058 20.766 184.638 22.314 183.798 23.586C182.982 24.858 181.854 25.83 180.414 26.502C178.998 27.15 177.378 27.474 175.554 27.474H170.838V37.194H165.258ZM170.838 22.614H175.59C176.382 22.614 177.066 22.458 177.642 22.146C178.218 21.834 178.662 21.402 178.974 20.85C179.31 20.298 179.478 19.662 179.478 18.942C179.478 18.198 179.31 17.55 178.974 16.998C178.662 16.446 178.218 16.014 177.642 15.702C177.066 15.39 176.382 15.234 175.59 15.234H170.838V22.614Z" fill="white"/>
<path d="M188.241 37.194V17.538H193.281V22.254L192.921 21.57C193.353 19.914 194.061 18.798 195.045 18.222C196.053 17.622 197.241 17.322 198.609 17.322H199.761V22.002H198.069C196.749 22.002 195.681 22.41 194.865 23.226C194.049 24.018 193.641 25.146 193.641 26.61V37.194H188.241Z" fill="white"/>
<path d="M211.883 37.626C209.939 37.626 208.163 37.182 206.555 36.294C204.971 35.406 203.699 34.194 202.739 32.658C201.803 31.098 201.335 29.334 201.335 27.366C201.335 25.374 201.803 23.61 202.739 22.074C203.699 20.538 204.971 19.326 206.555 18.438C208.163 17.55 209.939 17.106 211.883 17.106C213.827 17.106 215.591 17.55 217.175 18.438C218.759 19.326 220.019 20.538 220.955 22.074C221.915 23.61 222.395 25.374 222.395 27.366C222.395 29.334 221.915 31.098 220.955 32.658C220.019 34.194 218.759 35.406 217.175 36.294C215.591 37.182 213.827 37.626 211.883 37.626ZM211.883 32.766C212.867 32.766 213.719 32.538 214.439 32.082C215.183 31.626 215.759 30.99 216.167 30.174C216.599 29.358 216.815 28.422 216.815 27.366C216.815 26.31 216.599 25.386 216.167 24.594C215.759 23.778 215.183 23.142 214.439 22.686C213.719 22.206 212.867 21.966 211.883 21.966C210.899 21.966 210.035 22.206 209.291 22.686C208.547 23.142 207.959 23.778 207.527 24.594C207.119 25.386 206.915 26.31 206.915 27.366C206.915 28.422 207.119 29.358 207.527 30.174C207.959 30.99 208.547 31.626 209.291 32.082C210.035 32.538 210.899 32.766 211.883 32.766Z" fill="white"/>
</svg>

<svg width="223" height="48" viewBox="0 0 223 48" fill="none" xmlns="http://www.w3.org/2000/svg"><path fill-rule="evenodd" clip-rule="evenodd" d="M21.12 11.625a4.862 4.862 0 015.76 0l10.333 7.597a4.862 4.862 0 011.982 3.917v15.498H29.47V25.599L24 21.577l-5.47 4.022v13.038H8.808V23.139c0-1.547.735-3.001 1.982-3.917l10.331-7.597z" fill="#fff"/><path fill="#fff" d="M18.593 38.637h10.865V46.5H18.593zM60 37.194v-26.82h5.58v11.592h10.44V10.374h5.58v26.82h-5.58V26.826H65.58v10.368H60zm35.727.432c-1.944 0-3.72-.444-5.328-1.332a10.463 10.463 0 01-3.816-3.636c-.936-1.56-1.404-3.324-1.404-5.292 0-1.992.468-3.756 1.404-5.292a10.463 10.463 0 013.816-3.636c1.608-.888 3.384-1.332 5.328-1.332 1.944 0 3.708.444 5.292 1.332a10.18 10.18 0 013.78 3.636c.96 1.536 1.44 3.3 1.44 5.292 0 1.968-.48 3.732-1.44 5.292a10.18 10.18 0 01-3.78 3.636c-1.584.888-3.348 1.332-5.292 1.332zm0-4.86c.984 0 1.836-.228 2.556-.684a4.59 4.59 0 001.728-1.908c.432-.816.648-1.752.648-2.808 0-1.056-.216-1.98-.648-2.772a4.59 4.59 0 00-1.728-1.908c-.72-.48-1.572-.72-2.556-.72s-1.848.24-2.592.72c-.744.456-1.332 1.092-1.764 1.908-.408.792-.612 1.716-.612 2.772 0 1.056.204 1.992.612 2.808.432.816 1.02 1.452 1.764 1.908.744.456 1.608.684 2.592.684zm13.693 4.428V17.538h5.04v4.788l-.54-.792c.288-1.512.984-2.628 2.088-3.348 1.104-.72 2.424-1.08 3.96-1.08 1.632 0 3.06.42 4.284 1.26 1.248.816 2.028 1.92 2.34 3.312l-1.548.144c.648-1.608 1.572-2.796 2.772-3.564 1.2-.768 2.604-1.152 4.212-1.152 1.416 0 2.664.312 3.744.936a6.659 6.659 0 012.592 2.628c.624 1.104.936 2.4.936 3.888v12.636h-5.4V25.71c0-.768-.144-1.428-.432-1.98a3.021 3.021 0 00-1.152-1.296c-.504-.312-1.116-.468-1.836-.468-.696 0-1.308.156-1.836.468-.504.312-.9.744-1.188 1.296-.264.552-.396 1.212-.396 1.98v11.484h-5.4V25.71c0-.768-.144-1.428-.432-1.98a3.021 3.021 0 00-1.152-1.296c-.504-.312-1.116-.468-1.836-.468-.696 0-1.308.156-1.836.468-.504.312-.9.744-1.188 1.296-.264.552-.396 1.212-.396 1.98v11.484h-5.4zm42.902.432c-2.088 0-3.9-.456-5.436-1.368a9.707 9.707 0 01-3.564-3.744c-.84-1.56-1.26-3.288-1.26-5.184 0-1.968.432-3.72 1.296-5.256.888-1.536 2.076-2.748 3.564-3.636 1.488-.888 3.168-1.332 5.04-1.332 1.56 0 2.94.252 4.14.756 1.2.48 2.208 1.164 3.024 2.052a8.938 8.938 0 011.908 3.096c.432 1.152.648 2.412.648 3.78 0 .384-.024.768-.072 1.152-.024.36-.084.672-.18.936h-14.724v-3.96h11.664l-2.556 1.872c.24-1.032.228-1.944-.036-2.736-.264-.816-.732-1.452-1.404-1.908-.648-.48-1.452-.72-2.412-.72-.936 0-1.74.228-2.412.684-.672.456-1.176 1.128-1.512 2.016-.336.888-.468 1.968-.396 3.24-.096 1.104.036 2.076.396 2.916.36.84.912 1.5 1.656 1.98.744.456 1.644.684 2.7.684.96 0 1.776-.192 2.448-.576a4.115 4.115 0 001.62-1.584l4.32 2.052c-.384.96-.996 1.8-1.836 2.52-.816.72-1.788 1.284-2.916 1.692-1.128.384-2.364.576-3.708.576zm12.936-.432v-26.82h10.296c1.848 0 3.48.324 4.896.972 1.44.648 2.568 1.608 3.384 2.88.816 1.272 1.224 2.844 1.224 4.716 0 1.824-.42 3.372-1.26 4.644-.816 1.272-1.944 2.244-3.384 2.916-1.416.648-3.036.972-4.86.972h-4.716v9.72h-5.58zm5.58-14.58h4.752c.792 0 1.476-.156 2.052-.468a3.3 3.3 0 001.332-1.296c.336-.552.504-1.188.504-1.908 0-.744-.168-1.392-.504-1.944a3.3 3.3 0 00-1.332-1.296c-.576-.312-1.26-.468-2.052-.468h-4.752v7.38zm17.403 14.58V17.538h5.04v4.716l-.36-.684c.432-1.656 1.14-2.772 2.124-3.348 1.008-.6 2.196-.9 3.564-.9h1.152v4.68h-1.692c-1.32 0-2.388.408-3.204 1.224-.816.792-1.224 1.92-1.224 3.384v10.584h-5.4zm23.642.432c-1.944 0-3.72-.444-5.328-1.332a10.463 10.463 0 01-3.816-3.636c-.936-1.56-1.404-3.324-1.404-5.292 0-1.992.468-3.756 1.404-5.292a10.463 10.463 0 013.816-3.636c1.608-.888 3.384-1.332 5.328-1.332 1.944 0 3.708.444 5.292 1.332a10.18 10.18 0 013.78 3.636c.96 1.536 1.44 3.3 1.44 5.292 0 1.968-.48 3.732-1.44 5.292a10.18 10.18 0 01-3.78 3.636c-1.584.888-3.348 1.332-5.292 1.332zm0-4.86c.984 0 1.836-.228 2.556-.684a4.593 4.593 0 001.728-1.908c.432-.816.648-1.752.648-2.808 0-1.056-.216-1.98-.648-2.772a4.593 4.593 0 00-1.728-1.908c-.72-.48-1.572-.72-2.556-.72s-1.848.24-2.592.72c-.744.456-1.332 1.092-1.764 1.908-.408.792-.612 1.716-.612 2.772 0 1.056.204 1.992.612 2.808.432.816 1.02 1.452 1.764 1.908.744.456 1.608.684 2.592.684z"/></svg>
